components/Icon/icons/wordpress.svg

<svg width="50" height="50" viewBox="0 0 50 50" fill="none" xmlns="http://www.w3.org/2000/svg">
<circle cx="25" cy="25" r="24" fill="#F2F2F2"/>
<path d="M24.9714 50C11.01 49.7317 0.097625 38.287 0 24.9714C0.271458 11.0205 11.6554 0.097625 24.9714 0C38.9232 0.278917 49.9023 11.6374 50 24.9714C49.7242 38.9336 38.3049 49.9023 24.9714 50ZM24.9714 1.77142C12.0082 2.02667 1.80446 12.593 1.71429 24.9714C1.96642 37.945 12.5935 48.1384 24.9714 48.2285C37.945 47.9763 48.1384 37.3493 48.2286 24.9714C47.9839 11.9986 37.3314 1.8615 24.9714 1.77142V1.77142ZM18.9714 45.4285L25.3714 27.0285L32.0571 45.0285C27.5529 46.5364 23.2945 46.6278 18.9714 45.4285ZM14.0571 12.9143C11.7142 13.2328 9.43563 13.3463 7.2 13.2572C11.4449 7.18838 18.2415 3.77413 24.9714 3.71429C30.476 3.81846 35.6077 5.89921 39.3714 9.31429C37.6259 9.18525 36.5807 9.95079 35.8286 11.2571C34.7355 14.6296 37.0453 17.126 38.3429 19.6572C39.5697 21.9699 39.4724 24.5996 38.8 26.8572L35.6 37.7715L27.8858 14.8571C28.6895 14.7823 29.4986 14.7583 30.2286 14.6285C31.0926 14.4362 31.2822 13.6321 30.6858 13.1428C30.4953 12.9905 30.2858 12.9143 30.0572 12.9143L25.4286 13.2572H21.9143C20.9221 13.3158 18.1205 12.3573 17.8857 13.6572C17.7644 14.158 18.1382 14.5504 18.5714 14.6286C19.3358 14.7277 20.2116 14.8401 20.9143 14.9143L24.2857 23.9429L19.6 37.7715L11.8286 14.8571C12.6509 14.7857 13.4841 14.7608 14.2286 14.6285C14.8382 14.5522 15.1048 14.2475 15.0286 13.7143C14.9205 13.2402 14.498 12.9199 14.0571 12.9143V12.9143ZM5.48571 16.4572L15.7143 44.1143C12.0236 42.2952 9.10571 39.62 7.02854 36.4285C3.22875 30.3647 2.82904 22.6717 5.48571 16.4572V16.4572ZM45.4572 30.6571C43.7779 36.1408 40.3482 40.6827 35.6001 43.4286C35.8286 42.819 36.1905 41.7905 36.6858 40.3428L42.6287 23.0857C43.2001 21.4095 43.6001 19.5428 43.8287 17.4857C43.9059 16.6441 43.9084 15.7955 43.7715 15.0285C46.2064 20.2803 46.8972 25.4824 45.4572 30.6571V30.6571Z" fill="#21759B"/>
</svg>

<svg xmlns="http://www.w3.org/2000/svg" width="100%" height="100%" fill="none" viewBox="0 0 50 50"  xmlns:v="https://vecta.io/nano"><circle cx="25" cy="25" r="24" fill="#f2f2f2"/><path d="M24.971 50C11.01 49.732.098 38.287 0 24.971.271 11.021 11.655.098 24.971 0 38.923.279 49.902 11.637 50 24.971 49.724 38.934 38.305 49.902 24.971 50zm0-48.229c-12.963.255-23.167 10.822-23.257 23.2.252 12.974 10.879 23.167 23.257 23.257 12.974-.252 23.167-10.879 23.257-23.257-.245-12.973-10.897-23.11-23.257-23.2h0zm-6 43.657l6.4-18.4 6.686 18c-4.504 1.508-8.763 1.599-13.086.4zm-4.914-32.514a39.18 39.18 0 0 1-6.857.343c4.245-6.069 11.042-9.483 17.771-9.543 5.505.104 10.636 2.185 14.4 5.6-1.745-.129-2.791.636-3.543 1.943-1.093 3.373 1.217 5.869 2.514 8.4 1.227 2.313 1.13 4.942.457 7.2l-3.2 10.914-7.714-22.914c.804-.075 1.613-.099 2.343-.229.864-.192 1.054-.996.457-1.486-.191-.152-.4-.228-.629-.228l-4.629.343h-3.514c-.992.059-3.794-.9-4.029.4-.121.501.253.893.686.971l2.343.286 3.371 9.029L19.6 37.772l-7.771-22.914c.822-.071 1.656-.096 2.4-.229.61-.076.876-.381.8-.914a1.03 1.03 0 0 0-.972-.8h0zm-8.571 3.543l10.229 27.657c-3.691-1.819-6.609-4.494-8.686-7.686-3.8-6.064-4.199-13.757-1.543-19.971h0zm39.971 14.2c-1.679 5.484-5.109 10.026-9.857 12.772a129.22 129.22 0 0 0 1.086-3.086l5.943-17.257c.571-1.676.971-3.543 1.2-5.6.077-.842.08-1.69-.057-2.457 2.435 5.252 3.126 10.454 1.686 15.629h0z" fill="#21759b"/></svg>
